!!!!SEGMENT: The2001-Verbum_bonum_et_suave.krn
!!!id: The2001
!!!AGN: Motet
!!!SCT: Minor (1974)
!!!voices: 4
!!!COM: Pierrequin de Therache
!!!OTL: Verbum bonum et suave
**kern	**kern	**kern	**kern
*part4	*part3	*part2	*part1
*staff4	*staff3	*staff2	*staff1
*I"Bassus	*I"Tenor	*I"Altus	*I"Superius
*I'B	*I'T	*I'A	*I'S
*clefF4	*clefGv2	*clefGv2	*clefG2
*k[]	*k[]	*k[]	*k[]
*C:	*C:	*C:	*C:
*M2/1	*M2/1	*M2/1	*M2/1
*met(C|)	*met(C|)	*met(C|)	*met(C|)
!!section: Prima pars: Verbum bonum et suave
!!!OMD: Prima pars: Verbum bonum et suave
=1	=1	=1	=1
0r	0r	1D	1r
.	.	[1G	1d
=2	=2	=2	=2
0r	0r	2G]	0g
.	.	2A	.
.	.	2B	.
.	.	[2c	.
=3	=3	=3	=3
0r	0r	2c]	1a
.	.	2d	.
.	.	2G	[1g
.	.	[2c	.
=4	=4	=4	=4
0r	0r	2c]	1g]
.	.	2B	.
.	.	1A	1cc
=5	=5	=5	=5
0r	0r	2G	2b
.	.	2c	1a
.	.	2d	.
.	.	2B	[2g
=6	=6	=6	=6
0r	0r	1A	2g]
.	.	.	2f#i
.	.	1G	[1g
=7	=7	=7	=7
0r	0r	1r	1g]
.	.	1A	1r
=8	=8	=8	=8
0r	0r	1B	1r
.	.	1A	1a
=9	=9	=9	=9
0r	0r	1G	1b
.	.	2r	1a
.	.	[2c	.
=10	=10	=10	=10
0r	0r	2c]	1g
.	.	2B	.
.	.	2c	1e
.	.	[2A	.
=11	=11	=11	=11
0r	0r	2A]	1f
.	.	1d	.
.	.	.	1e
.	.	2c#i	.
=12	=12	=12	=12
0r	0r	1d	1d
.	.	1G	1r
=13	=13	=13	=13
0r	0r	1.G	1g
.	.	.	1g
.	.	2E	.
=14	=14	=14	=14
0r	0r	2F	1d
.	.	1G	.
.	.	.	1g
.	.	2A	.
=15	=15	=15	=15
0r	0r	2B	1g
.	.	2.c	.
.	.	.	2a
.	.	4A	.
.	.	[2d	2b
=16	=16	=16	=16
0r	0r	4d]	2a
.	.	4c	.
.	.	2B	1g
.	.	1A	.
.	.	.	2f#i
=17	=17	=17	=17
0r	0r	2G	1g
.	.	2r	.
.	.	1d	1r
=18	=18	=18	=18
0r	0r	0f	1a
.	.	.	[1cc
=19	=19	=19	=19
0r	0r	1e	1cc]
.	.	1d	2b
.	.	.	[2a
=20	=20	=20	=20
1r	0r	2c	2a]
.	.	2B	1g
1D	.	1A	.
.	.	.	2f#i
=21	=21	=21	=21
0G	0r	1G	1g
.	.	1r	1r
=22	=22	=22	=22
1A	1D	0r	0r
2.G	[1G	.	.
4F	.	.	.
=23	=23	=23	=23
1E	1G]	0r	0r
1F	1A	.	.
=24	=24	=24	=24
2.E	0G	0r	0r
4D	.	.	.
2C	.	.	.
2BB	.	.	.
=25	=25	=25	=25
1AA	1c	0r	0r
2GG	2B	.	.
2C	[2A	.	.
=26	=26	=26	=26
2D	2A]	0r	1r
2BB	1G	.	.
1AA	.	.	1a
.	2F#i	.	.
=27	=27	=27	=27
0GG	1G	0r	0b
.	1r	.	.
=28	=28	=28	=28
0r	1A	0r	1a
.	[1B	.	2g
.	.	.	2dd
=29	=29	=29	=29
1r	1B]	1d	2b
.	.	.	1g
1D	1A	2.d	.
.	.	.	2f#i
.	.	4c	.
=30	=30	=30	=30
0E	0G	4B	1g
.	.	4A	.
.	.	4c	.
.	.	4B	.
.	.	2G	1r
.	.	[2c	.
=31	=31	=31	=31
1D	1r	2c]	2r
.	.	2B	2d
1C	1E	1c	2.e
.	.	.	4d
=32	=32	=32	=32
0r	0F	1A	4c
.	.	.	4B
.	.	.	1A
.	.	1A	.
.	.	.	[2d
=33	=33	=33	=33
1AA	1E	2.A	2d]
.	.	.	2c#i
.	.	4G	.
[1BB	1D	4F	1d
.	.	4E	.
.	.	4G	.
.	.	4F	.
=34	=34	=34	=34
1BB]	0r	2D	0r
.	.	1G	.
1AA	.	.	.
.	.	2F#i	.
=35	=35	=35	=35
[0GG	0r	1.G	1r
.	.	.	1g
.	.	4F	.
.	.	4E	.
=36	=36	=36	=36
0GG]	1G	1D	1g
.	1G	1r	1d
=37	=37	=37	=37
1GG	1D	0r	1.g
1E	1G	.	.
.	.	.	4a
.	.	.	4b
=38	=38	=38	=38
1E	1G	2c	4cc
.	.	.	4b
.	.	2c	4a
.	.	.	4g
2D	1A	2d	4f
.	.	.	4g
2F	.	2c	[2a
=39	=39	=39	=39
2D	2F	2d	2a]
2E	2G	4B	1g
.	.	4c	.
1D	1A	1d	.
.	.	.	2f#i
=40	=40	=40	=40
0GG	0G	1r	1g
.	.	1d	1r
=41	=41	=41	=41
0r	0r	0f	1a
.	.	.	[1cc
=42	=42	=42	=42
1r	0r	1e	1cc]
1D	.	1d	1b
=43	=43	=43	=43
0F	1A	4c	0a
.	.	4B	.
.	.	4A	.
.	.	4G	.
.	[1c	1A	.
=44	=44	=44	=44
1E	1c]	1G	0r
[1D	1B	[1d	.
=45	=45	=45	=45
0D]	1A	2d]	2r
.	.	4c	1f
.	.	4B	.
.	1d	1A	.
.	.	.	2f
=46	=46	=46	=46
2E	2c	2G	2g
2D	2.d	2A	2f
2G	.	2B	4d
.	4c	.	4e
2F	2A	2c	4f
.	.	.	4g
=47	=47	=47	=47
2D	2F	2d	2a
2E	2G	2B	1g
1D	1A	1d	.
.	.	.	2f#i
=48	=48	=48	=48
0GG	0G	0d	1g
.	.	.	2r
.	.	.	2g
=49	=49	=49	=49
0r	1r	0r	1cc
.	2r	.	1b
.	2G	.	.
=50	=50	=50	=50
0r	1.c	0r	1cc
.	.	.	1dd
.	2B	.	.
=51	=51	=51	=51
0r	1A	0r	1cc
.	1d	.	2b
.	.	.	[2a
=52	=52	=52	=52
0r	2c	0r	2a]
.	2B	.	1g
.	1A	.	.
.	.	.	2f#i
=53	=53	=53	=53
0r	1G	2r	0g
.	.	2G	.
.	1r	1c	.
=54	=54	=54	=54
2r	0r	1B	0r
2GG	.	.	.
1C	.	1c	.
=55	=55	=55	=55
1BB	0r	1d	0r
1AA	.	1c	.
=56	=56	=56	=56
1D	0r	2B	0r
.	.	1A	.
2C	.	.	.
2BB	.	[2G	.
=57	=57	=57	=57
1AA	0r	2G]	1a
.	.	2F#i	.
1GG	.	1G	1b
=58	=58	=58	=58
0r	1A	0r	1a
.	1B	.	2g
.	.	.	[2g
=59	=59	=59	=59
0r	1A	1c	4g]
.	.	.	8fL
.	.	.	8eJ
.	.	.	2f#i
.	1G	2d	1g
.	.	[2e	.
=60	=60	=60	=60
1E	0r	4e]	0r
.	.	4d	.
.	.	4c	.
.	.	4B	.
1F	.	2A	.
.	.	[2d	.
=61	=61	=61	=61
1E	0r	2d]	0r
.	.	2c#i	.
1D	.	1d	.
=62	=62	=62	=62
0r	1r	0r	1g
.	1G	.	1g
=63	=63	=63	=63
0r	1G	0r	1d
.	2.D	.	2.f
.	4E	.	4g
=64	=64	=64	=64
0r	2F	0r	1.a
.	2G	.	.
.	2A	.	.
.	2B	.	4g
.	.	.	4f
=65	=65	=65	=65
0r	2c	0r	2e
.	2d	.	2.a
.	2B	.	.
.	.	.	4g
.	2c	.	[2g
=66	=66	=66	=66
1r	1A	0r	2g]
.	.	.	2f#i
1C	1G	.	1g
=67	=67	=67	=67
1C	0r	1G	0r
1GG	.	1G	.
=68	=68	=68	=68
2.BB	0r	1D	0r
4C	.	.	.
[1D	.	2.F	.
.	.	4G	.
=69	=69	=69	=69
2D]	0r	1.A	0r
2C	.	.	.
2AA	.	.	.
2C	.	[2G	.
=70	=70	=70	=70
2BB	0r	2G]	0r
2GG	.	4F#i	.
.	.	4E	.
1AA	.	1F#i	.
=71	=71	=71	=71
1GG	1r	1G	1r
1r	2r	1r	1g
.	[2c	.	.
=72	=72	=72	=72
0r	2c]	0r	1e
.	1A	.	.
.	.	.	1f
.	[2B	.	.
=73	=73	=73	=73
0r	2B]	0r	1d
.	1G	.	.
.	.	.	1g
.	[2c	.	.
=74	=74	=74	=74
0r	2c]	0r	2e
.	2A	.	1a
.	2d	.	.
.	2B	.	[2g
=75	=75	=75	=75
0r	1A	0r	2g]
.	.	.	2f#i
.	1G	.	[1g
=76	=76	=76	=76
2r	0r	1G	1g]
1C	.	.	.
.	.	1E	1r
[2AA	.	.	.
=77	=77	=77	=77
2AA]	0r	1F	0r
1BB	.	.	.
.	.	1D	.
[2GG	.	.	.
=78	=78	=78	=78
2GG]	0r	1G	0r
1C	.	.	.
.	.	2E	.
2AA	.	[2A	.
=79	=79	=79	=79
2D	1r	2A]	0r
2BB	.	1G	.
1AA	1c	.	.
.	.	2F#i	.
=80	=80	=80	=80
1GG	1B	1G	1r
1r	1A	1r	1cc
=81	=81	=81	=81
2r	1G	1r	1b
2G	.	.	.
2A	1r	1c	1a
2F	.	.	.
=82	=82	=82	=82
1G	1E	1B	1g
1D	1F	1A	1r
=83	=83	=83	=83
1r	1E	4G	1e
.	.	4A	.
.	.	4B	.
.	.	4c	.
2r	2D	1d	1f
2D	[2A	.	.
=84	=84	=84	=84
2C	4A]	2r	2e
.	4G	.	.
2D	2F	2A	1d
1AA	1E	2A	.
.	.	2A	2c#i
=85	=85	=85	=85
1D	0D	1A	1d
[1F	.	2r	1r
.	.	2A	.
=86	=86	=86	=86
2F]	1r	1.c	0r
4E	.	.	.
4D	.	.	.
4C	2r	.	.
4D	.	.	.
2E	2G	2B	.
=87	=87	=87	=87
2.AA	1.c	1A	1r
4BB	.	.	.
4C	.	1G	2r
4D	.	.	.
2E	2B	.	2g
=88	=88	=88	=88
4AA	1A	1r	1.cc
4BB	.	.	.
4C	.	.	.
4D	.	.	.
4E	1G	2r	.
4F	.	.	.
2G	.	2D	2b
=89	=89	=89	=89
2F	2r	1F	1a
2D	2.d	.	.
1E	.	1G	1g
.	4B	.	.
.	2c	.	.
=90	=90	=90	=90
1D	0d	1A	1f
2G	.	2B	2g
2F	.	[2A	[2a
=91	=91	=91	=91
1D	1.d	1A]	4a]
.	.	.	4g
.	.	.	4f
.	.	.	4e
2G	.	2B	2d
2F	2d	2A	2a
=92	=92	=92	=92
2G	1d	2r	2b
2D	.	2d	2.a
1E	1G	2B	.
.	.	.	4g
.	.	2c	[2g
=93	=93	=93	=93
1D	0A	[0dl	2g]
.	.	.	4f#i
.	.	.	4e
1D	.	.	1f#i
=94	=94	=94	=94
00GG	00G	00d]	00g
==	==	==	==
*-	*-	*-	*-
!!!system-decoration: [*]
!!!RDF**kern: i = editorial accidental
!!!RDF**kern: l = terminal long
!!!ENC: Benjamin Ory
!!!END: 2021/1/5
!!!EED: Benjamin Ory
!!!EEV: 2021/4/26
!!!YEC: Copyright 2021 Benjamin Ory, All Rights Reserved
!!!ONB: Translated from MusicXML on 2021/04/26
